X:1
T:Title
%%score { ( 1 4 5 ) | ( 2 3 ) }
L:1/8
M:4/4
K:Bb
V:1 treble nm="Grand Piano"
V:4 treble 
V:5 treble 
V:2 bass 
V:3 bass 
V:1
 z4 z2 z[Q:1/4=100] F | [DB]2 [DB][Dc] BAGA | [DB]2 [EB]2 [DB]3 [FB] | c2 cc cABc | %4
[M:7/8] [Fd]-[Fd]-[Fd]- [Fd]3 z |[M:1/8] d |[M:4/4] c2 cd cB[=EA][EG] | [FA]2 [GA]2 [FA]3 [DF] | %8
 [DG]2 [DG][DG] .[=Ec]2 [CEA][B,EG] |[M:3/4] [A,F]6 |[M:1/4] z2 | %11
[M:4/4] z2 .[ce]2 .[Fce]2 .[Fce]2 | z2 .[Bd]2 .[FBd]2 .[FBd]2 | z2 .[ce]2 .[Fce]2 .[FAc]2 | %14
 z2 .[Bf]2 .[FBd]2 z2 | z2 .[ce]2 .[Fce]2 .[Fce]2 | z2 .[Bd]2 .[FBd]2 .[FBd]2 | %17
 z2 .c2 .[=Ec]2 .[EGc]2 | z2 .[FAc]2 .[EFAc]2 f2 | z2 z ^f [Geg]2 [Aea]2 | [Bdb]4 z4 | [Aea]4 z4 | %22
 [dfd']4 z4 | [FBf]2 [GB=e]2 [FA_e]2 [FBd]2 |[M:9/8] [Gc]3- [Gc] G2- G ^F2 |[M:4/4] F2 B2 c3 [DB] | %26
[M:7/8] [DB]-[DB]-[DB]- [DB]3 z |] %27
V:2
 z4 z2 z F, | [B,,F,]2 [B,,F,][B,,F,] [F,E]2 [F,CE][F,CE] | [B,,B,]2 [E,G,]2 [B,,F,]3 [D,B,] | %3
 z4 F2 z2 |[M:7/8] [B,,B,]-[B,,B,]-[B,,B,]- [B,,B,]3 z |[M:1/8][K:treble] [B,F] | %6
[M:4/4] [A,CF]2 [A,CF][A,CF] [G,C=E]2[K:bass] [C,C][C,C] | [F,C]2 [=E,_D]2 [D,=D]3 [D,A,] | %8
 [B,,G,]2 [B,,G,][B,,G,] z[K:treble] B[K:bass]C,C, |[M:3/4] F,6 |[M:1/4] F,2 | %11
[M:4/4] z2 F^F, G,2 A,2 | z2 .F2 F,2 B,2 | z2[K:treble] .F2 F,2 E2 | D4[K:bass] z4 | %15
 z2 F^F, G,2 A,2 | z2 .F2 F,2 B,2 | z2 =EG, A,2 B,2 | z2 .E2 F,2 F2 | F,,2 z ^F [F,CE]2 [F,CE]2 | %20
 B,,2 F,2 [F,B,D]2 [F,B,D]2 | G,,2 F,2 [F,A,E]2 [F,A,E]2 | B,,2 z[K:treble] c [F,B,D]2 z2 | %23
 [D,D]2 [_D,_D]2 [C,C]2 [B,,B,]2 |[M:9/8] [E,E]3- [E,E] [E,B,E]2- [E,B,E] [=E,B,_D]2 | %25
[M:4/4] [F,B,D]2 [^F,B,=E]2 [=F,A,_E]3 [B,,B,] |[M:7/8] [B,,B,]-[B,,B,]-[B,,B,]- [B,,B,]3 z |] %27
V:3
 x8 | x8 | x8 | [F,A,F]2 [F,A,F][F,A,F] [F,A,]F,[F,G,F][F,A,F] |[M:7/8] x7 |[M:1/8][K:treble] x | %6
[M:4/4] x6[K:bass] x2 | x8 | z4 [C,G,]2[K:treble][K:bass] z2 |[M:3/4] x6 |[M:1/4] x2 | %11
[M:4/4] F,4 z4 | B,4 z4 | A,4[K:treble] z4 | z2 FC[K:bass] B,2 F,2 | F,4 z4 | B,4 z4 | C,8 | %18
 F,4 z4 | z2 F,2 z4 | x8 | x8 | z2 F,2[K:treble] z4 | x8 |[M:9/8] x9 |[M:4/4] x8 |[M:7/8] x7 |] %27
V:4
 x8 | x8 | x8 | x8 |[M:7/8] x7 |[M:1/8] x |[M:4/4] x8 | x8 | x8 |[M:3/4] x6 |[M:1/4] x2 | %11
[M:4/4] x8 | x8 | x8 | x8 | x8 | x8 | A,4 z4 | C4 z4 | [Fef]4 z4 | z2 [B,D]2 [Fdf]2 [Bdb]2 | %21
 z2 [A,E]2 [Fef]2 [ege']2 | z2 z [ec'] [Bdb]2 [F,F]2 | x8 |[M:9/8] x9 |[M:4/4] x8 |[M:7/8] x7 |] %27
V:5
 x8 | x8 | x8 | x8 |[M:7/8] x7 |[M:1/8] x |[M:4/4] x8 | x8 | x8 |[M:3/4] x6 |[M:1/4] x2 | %11
[M:4/4] x8 | x8 | x8 | x8 | x8 | x8 | x8 | x8 | z2 [A,E]2 z4 | x8 | x8 | z2 [B,D]2 z4 | x8 | %24
[M:9/8] x9 |[M:4/4] x8 |[M:7/8] x7 |] %27

